icons/folder-cross.svg

<svg xmlns="http://www.w3.org/2000/svg" viewBox="0 0 24 24" fill="currentColor">
  <path d="M3.75 4.14971c0-.28578.16422-.45.45001-.45H12.3c.7315 0 1.446.45007 1.7147 1.0546l.0093.02101.7407 1.42439H3.75v-2.05Zm-1.5 2.05v-2.05c0-1.11423.83581-1.95 1.95001-1.95H12.3c1.2605 0 2.5379.74053 3.0753 1.9229l1.08 2.0771H17c2.6142 0 4.75 2.13578 4.75 4.74999v6c0 .4142-.3358.75-.75.75s-.75-.3358-.75-.75v-6c0-1.78578-1.4642-3.24999-3.25-3.24999H3.75v9.24999c0 1.7858 1.46421 3.25 3.25 3.25.41421 0 .75.3358.75.75s-.33579.75-.75.75c-2.61421 0-4.75-2.1358-4.75-4.75V6.19971ZM17.6304 16.2197c.2929.2929.2929.7677 0 1.0606L16.0107 18.9l1.6197 1.6197c.2929.2929.2929.7677 0 1.0606-.2929.2929-.7678.2929-1.0607 0L14.95 19.9607l-1.6197 1.6196c-.2929.2929-.7678.2929-1.0606 0-.2929-.2929-.2929-.7677 0-1.0606L13.8893 18.9l-1.6196-1.6197c-.2929-.2929-.2929-.7677 0-1.0606.2928-.2929.7677-.2929 1.0606 0l1.6197 1.6196 1.6197-1.6196c.2929-.2929.7678-.2929 1.0607 0Z"/>
</svg>

<svg width="24" height="24" viewBox="0 0 24 24" fill="none" xmlns="http://www.w3.org/2000/svg">
<path fill-rule="evenodd" clip-rule="evenodd" d="M3.75 4.14971C3.75 3.86393 3.91422 3.69971 4.20001 3.69971H12.3C13.0315 3.69971 13.746 4.14978 14.0147 4.75431L14.024 4.77532L14.7647 6.19971H3.75V4.14971ZM2.25 6.19971V4.14971C2.25 3.03548 3.08581 2.19971 4.20001 2.19971H12.3C13.5605 2.19971 14.8379 2.94024 15.3753 4.12261L16.4553 6.19971H17C19.6142 6.19971 21.75 8.33549 21.75 10.9497V16.9497C21.75 17.3639 21.4142 17.6997 21 17.6997C20.5858 17.6997 20.25 17.3639 20.25 16.9497V10.9497C20.25 9.16392 18.7858 7.69971 17 7.69971H3.75V16.9497C3.75 18.7355 5.21421 20.1997 7 20.1997C7.41421 20.1997 7.75 20.5355 7.75 20.9497C7.75 21.3639 7.41421 21.6997 7 21.6997C4.38579 21.6997 2.25 19.5639 2.25 16.9497V7.69971V6.19971ZM17.6304 16.2197C17.9233 16.5126 17.9233 16.9874 17.6304 17.2803L16.0107 18.9L17.6304 20.5197C17.9233 20.8126 17.9233 21.2874 17.6304 21.5803C17.3375 21.8732 16.8626 21.8732 16.5697 21.5803L14.95 19.9607L13.3303 21.5803C13.0374 21.8732 12.5625 21.8732 12.2697 21.5803C11.9768 21.2874 11.9768 20.8126 12.2697 20.5197L13.8893 18.9L12.2697 17.2803C11.9768 16.9874 11.9768 16.5126 12.2697 16.2197C12.5625 15.9268 13.0374 15.9268 13.3303 16.2197L14.95 17.8393L16.5697 16.2197C16.8626 15.9268 17.3375 15.9268 17.6304 16.2197Z" fill="black"/>
</svg>
